X: 41
T:Pantheon Cotillon,The. JaW.041
T:Grant's Rant. JaW.041
M:6/8
L:1/8
Q:120
C:Grant's Rant
S:James Winder Ms, Lancashire, 1835-41
R:Jig
O:England
A:Wyresdale,Lancashire
H:1/8
Z:vmp.Chris Partington, Aug 2004
K:G
d2dd2c|B2BB2A|G2G AGA|B2BB2c|!
d2dd2c|B2BB2A|G2G AGA|G3G3|!
|b2b bag|a2d def|g2g gfe|f2B Bcd|!
e2e edc|d2G GAB|cdc BcB|B3"tr"A3|!
|B3"tr"AGA|BcB "tr"AGA|BcB AGA|BcBA3|!
a2aa2g|f2ff2e|d2d "tr"ede|d2-d ((4G/A/B/c/)|!
d2dd2c|B2BB2A|G2G AGA|B2BB2c|!
d2dd2c|B2BB2A|G2G AGA|G3G3|]
